X: 32
T: Soubz les branches / En la rous\'ee / Jolis mois
N: Derived from Ano3038-Soubz_les_branches__En_la_rousee__Jolis_mois--Dijon_Chansonnier.krn
C: Anonymous
%%abc-version 2.0
%%abcx-abcm2ps-target-version 5.9.1 (29 Sep 2008)
%%abc-creator hum2abc beta
%%abcx-conversion-date 2019/02/16 20:18:27
%%abc-edited-by Jesse Rodin
%%abc-edited-by Chris Gage 03-06-2015
%%abcx-initial-encoding-date 2015/03/13/
%%humdrum-veritas 2044911294
%%humdrum-veritas-data 1376780205
%%linebreak <none>
%%barnumbers 0
L: 1/4
M: 2/1
Q: 1/2=120
%%staves [1 2 3 4]
V: 1 clef=treble
V: 2 clef=treble-8
V: 3 clef=treble-8
V: 4 clef=bass
K: C
[V:1] G8 | 
[V:2] z8 | 
[V:3] z8 | 
[V:4] G,4E,2F,2 | 
[V:1] E4F4 | 
[V:2] z8 | 
[V:3] B4c4 | 
[V:4] G,4A,4 | 
[V:1] G6F2 | 
[V:2] z8 | 
[V:3] d8 | 
[V:4] G,8- | 
[V:1] D4d4- | 
[V:2] z8 | 
[V:3] B8 | 
[V:4] G,8 | 
[V:1] d2c2B2G2 | 
[V:2] B4d4 | 
[V:3] G8 | 
[V:4] z4G,4 | 
[V:1] A4G4 | 
[V:2] d4e4 | 
[V:3] z8 | 
[V:4] F,4E,4 | 
[V:1] A2c4B2 | 
[V:2] e4c4 | 
[V:3] z8 | 
[V:4] A,8 | 
[V:1] G8 | 
[V:2] B8 | 
[V:3] z8 | 
[V:4] E,8 | 
[V:1] A4F4 | 
[V:2] A4A4 | 
[V:3] c4c4 | 
[V:4] E4C4 | 
[V:1] z4G4 | 
[V:2] G8 | 
[V:3] B8 | 
[V:4] D8 | 
[V:1] F2A4GF | 
[V:2] d8 | 
[V:3] A8 | 
[V:4] D,4F,4 | 
[V:1] E4D2G2- | 
[V:2] c4B4 | 
[V:3] G8 | 
[V:4] C,4G,4 | 
[V:1] GFG2A2^F2 | 
[V:2] A4A4 | 
[V:3] z8 | 
[V:4] D,8 | 
[V:1] G4z4 | 
[V:2] G8 | 
[V:3] z8 | 
[V:4] D8 | 
[V:1] G4F2G2 | 
[V:2] d8 | 
[V:3] z8 | 
[V:4] G,4D,4 | 
[V:1] A4D4 | 
[V:2] c4B4 | 
[V:3] z8 | 
[V:4] F,4G,4 | 
[V:1] G6E2 | 
[V:2] z8 | 
[V:3] B4c4 | 
[V:4] E,8 | 
[V:1] F4z2D2- | 
[V:2] z8 | 
[V:3] d8 | 
[V:4] D,4G,4- | 
[V:1] D2G2F2D2 | 
[V:2] z8 | 
[V:3] B8 | 
[V:4] G,2E,2D,4 | 
[V:1] E4A4 | 
[V:2] z8 | 
[V:3] c4c4 | 
[V:4] C,4F,4 | 
[V:1] B2G4^F2 | 
[V:2] z8 | 
[V:3] B4c4 | 
[V:4] G,2B,2A,4 | 
[V:1] G8 | 
[V:2] B4d4 | 
[V:3] d8 | 
[V:4] G,6F,2 | 
[V:1] z4G4 | 
[V:2] d4e4 | 
[V:3] B8 | 
[V:4] G,4E,4 | 
[V:1] G6A2 | 
[V:2] e4c4 | 
[V:3] c8 | 
[V:4] C,8 | 
[V:1] B2c2d4- | 
[V:2] B8 | 
[V:3] z8 | 
[V:4] G,8 | 
[V:1] d2B4G2 | 
[V:2] B4d4 | 
[V:3] z8 | 
[V:4] z4G,4 | 
[V:1] A2B4G2- | 
[V:2] d4e4 | 
[V:3] z8 | 
[V:4] F,2G,4C,2- | 
[V:1] G2E2^F4 | 
[V:2] e4c4 | 
[V:3] B4c4 | 
[V:4] C,2G,2A,4 | 
[V:1] z2G4F2 | 
[V:2] B8 | 
[V:3] d8 | 
[V:4] G,8- | 
[V:1] D4G4- | 
[V:2] z8 | 
[V:3] B8 | 
[V:4] G,4E,4- | 
[V:1] G4E4- | 
[V:2] z8 | 
[V:3] G4G4 | 
[V:4] E,2C,2C,4- | 
[V:1] E2F2G2A2- | 
[V:2] z8 | 
[V:3] c4c4 | 
[V:4] C,2D,2E,2F,2- | 
[V:1] A2G2c3B/A/ | 
[V:2] z8 | 
[V:3] c4c4 | 
[V:4] F,2E,2C,4 | 
[V:1] B8 | 
[V:2] B4d4 | 
[V:3] d8 | 
[V:4] G,6F,2 | 
[V:1] z4G4- | 
[V:2] d4e4 | 
[V:3] B8 | 
[V:4] G,4E,4 | 
[V:1] G2F2E4 | 
[V:2] e4c4 | 
[V:3] z8 | 
[V:4] C6B,2 | 
[V:1] D4G4- | 
[V:2] B8 | 
[V:3] z8 | 
[V:4] G,4E,2F,2 | 
[V:1] G4E4 | 
[V:2] z8 | 
[V:3] B4c4 | 
[V:4] G,4A,4 | 
[V:1] F4D4- | 
[V:2] A4A4 | 
[V:3] d8 | 
[V:4] D,8 | 
[V:1] D4d4- | 
[V:2] G8 | 
[V:3] B8 | 
[V:4] D8 | 
[V:1] d4G4 | 
[V:2] d8 | 
[V:3] G8 | 
[V:4] _B,8 | 
[V:1] F4G4 | 
[V:2] c4B4 | 
[V:3] z8 | 
[V:4] A,4G,4 | 
[V:1] A4z2A2 | 
[V:2] A4A4 | 
[V:3] c4c4 | 
[V:4] F,8 | 
[V:1] B2d4G2 | 
[V:2] G4d4- | 
[V:3] B8 | 
[V:4] G,4G,4 | 
[V:1] A2^F4E2 | 
[V:2] d2c2A3G | 
[V:3] A8 | 
[V:4] D,8 | 
[V:1] G8 |]  
[V:2] [G8B8] |]  
[V:3] G8 |]  
[V:4] D8 |]  



